X: 37025
T: Silent Scene
R: slide
M: 12/8
K: Gmajor
D|:GDG B4 AG ABG|D3 GAB BAG ABG|
GDG B4 AG ABd|dcB AGA cGD G3:|
|:[Bd3] dBd B3 G2E|B3 EFG BAG A3|
[Bd3] dBd e3 B2A|GDD FGA G6:|

